X:1
T:Title
%%score 1 2
L:1/8
Q:1/4=97
M:4/4
K:D
V:1 treble nm="Grand Piano, Soprano"
V:2 bass nm="Choir Pad, It�s Just Like Him"
V:1
 [DF][EG] [FA]>[FA] [FA][GB][FA][Ad] | [Gc][GB] [FA]6 | [FA][FA][GB][GB] [GB][GB][^Ge][Gd] | %3
w: By~W.~L.~Stone * * * * * * *|||
 [^Gc][Gd] [=Ge]6 | [GA][GA][Fd][Fd] [Fd][Fd] [Ec]2 | [E^A][EA][DB][DB] [DB][DB] [D=A]2 | %6
w: |||
 D[DE][DF][EG] [FA][GB][FA][DF] | [CF][CE] D6 | z [Fd] [Gc]2 [EG]2 [Gc]2- | %9
w: |||
 [Gc][GB][FB][FA] [FA]>[DF] [FA]2- | [FA][FB][FA][EG] [EG]>[DF] [EG]2- | %11
w: ||
 [EG][GB][GB][FA] [FA]>[DF] [FA]2- | [FA][Fd] [Gc]2 [EG]2 [Gc]2- | %13
w: ||
 [Gc][GB][GB][FA] [FA]>[DF] [FA]2- | [FA][FA][GB][Ac] [Ad][Ae][Af][Fd]- | %15
w: ||
 [Fd][GB][FA][DF] [CF][CE] D2- | D6 z2 |] %17
w: ||
V:2
 [D,A,][D,A,] [D,D]>[D,D] [D,D][D,D][D,D][F,D] | [G,D][G,D] [D,D]6 | %2
 [D,D][D,D][G,D][G,D] [G,D][G,D][E,D][E,B,] | [E,E][E,D] [A,C]6 | %4
 [A,C][A,C][D,A,][D,A,] [D,A,][D,A,] [F,^A,]2 | [F,C][F,C][G,B,][G,B,] G,G, [D,F,]2 | %6
 [D,F,][D,G,][D,A,][D,A,] [D,D][D,D][D,D][D,A,] | [A,,A,][A,,G,] [D,F,]6 | %8
 z [D,A,] [E,A,]2 A,2 [A,,A,]2- | [A,,A,][A,,A,][D,A,][D,A,] [D,A,]>[D,A,] [D,A,]2- | %10
 [D,A,][D,A,][A,,A,][A,,A,] [A,,A,]>[A,,A,] [A,,A,]2- | %11
 [A,,A,][A,,A,][D,A,][D,A,] [D,A,]>[D,A,] [D,A,]2- | [D,A,][D,A,] [E,A,]2 A,2 [A,,A,]2- | %13
 [A,,A,][A,,A,][D,A,][D,A,] [D,A,]>[D,A,] [D,A,]2- | [D,A,][D,D][G,D][G,E] [F,D][E,C][D,D][D,D]- | %15
 [D,D][G,D][A,D]A, [A,,A,][A,,G,] [D,F,]2- | [D,F,]6 z2 |] %17

